assets/images/telegram.svg

<svg width="202" height="202" viewBox="0 0 202 202" fill="none" xmlns="http://www.w3.org/2000/svg">
<rect x="0.5" y="0.5" width="201" height="201" rx="4.5" fill="#FAFAFA" stroke="#121212"/>
<path d="M141.4 63.6413L126.223 142.876C126.223 142.876 124.099 148.37 118.266 145.735L83.2473 117.931L83.0849 117.849C87.8151 113.45 124.495 79.2985 126.098 77.7505C128.58 75.353 127.039 73.9257 124.158 75.7368L69.977 111.368L49.0743 104.084C49.0743 104.084 45.7848 102.873 45.4683 100.238C45.1477 97.5991 49.1825 96.1718 49.1825 96.1718L134.397 61.5543C134.397 61.5543 141.4 58.3676 141.4 63.6413Z" fill="#121212"/>
</svg>

<svg width="202" height="202" fill="none" xmlns="http://www.w3.org/2000/svg"><rect x=".5" y=".5" width="201" height="201" rx="4.5" fill="#FAFAFA" stroke="#121212"/><path d="m141.4 63.641-15.177 79.235s-2.124 5.494-7.957 2.859l-35.019-27.804-.162-.082c4.73-4.399 41.41-38.55 43.013-40.099 2.482-2.397.941-3.824-1.94-2.013l-54.181 35.631-20.903-7.284s-3.29-1.211-3.606-3.846c-.32-2.639 3.714-4.066 3.714-4.066l85.215-34.618s7.003-3.186 7.003 2.087Z" fill="#121212"/></svg>
